X: 2015
T: Ashes
R: jig
M: 6/8
K: Eminor
|:GBB FBB|EBB BAB|GBB FBB|BAG E2B|
GBB FBB|EBB BAB|dBd BAG|FAG EEE:|
|:eBB gBB|eBe gfe|dAA fAA|dAd fed|
eBB gBB|eBe gfe|dBd BAG|FAG EGB|
eBB gBB|eBe gfe|dAA fAA|afa gfe|
gBB fBB|eBB gfe|dBd BAG|FAG EEE:|

